packages/design-system/site/assets/images/header-resources.svg

<?xml version="1.0" encoding="UTF-8" standalone="no"?>
<svg width="52px" height="60px" viewBox="0 0 52 60" version="1.1" xmlns="http://www.w3.org/2000/svg" xmlns:xlink="http://www.w3.org/1999/xlink" xmlns:sketch="http://www.bohemiancoding.com/sketch/ns">
    <!-- Generator: Sketch 3.3.3 (12072) - http://www.bohemiancoding.com/sketch -->
    <title>Untitled</title>
    <desc>Created with Sketch.</desc>
    <defs></defs>
    <g id="Page-1" stroke="none" stroke-width="1" fill="none" fill-rule="evenodd" sketch:type="MSPage">
        <path d="M26.4864538,54.1280545 C26.4864538,54.1284253 27.9729899,53.5944853 28.212164,53.4213256 L51.3340684,44.0877581 C51.3340684,44.0877581 51.474364,43.908295 51.5579443,43.5827399 C51.6851805,43.0869915 49.0803842,16.4163188 49.0803842,16.0681454 C49.0803842,15.7196012 46.189773,15.5475539 45.9397783,15.41926 C45.6901566,15.2909661 26.6383163,0.316545236 26.3584714,0.154880075 C26.0375826,-0.0305157505 25.4663259,-0.117280997 24.950665,0.291702195 C24.4697049,0.673246805 0.898183034,14.1778496 0.456401229,14.3973582 C0.0146194247,14.6164961 -0.00552940764,15.0299288 0.000813743271,15.1152109 C0.00715689418,15.2008637 0.000813743271,43.4559292 0.000813743271,43.6932358 C0.000813743271,43.9309133 0.224316531,44.2931767 0.545951595,44.442235 C0.867959785,44.5909224 24.5338827,53.9015008 24.7607436,54.0472219 C24.9876046,54.1925722 26.2506378,54.1072902 26.4864538,54.1280545" id="Fill-1" fill="#E97293" sketch:type="MSShapeGroup"></path>
        <path d="M0.219403108,43.9132261 L25.7953607,0 C25.7953607,0 25.312535,0.0381915401 24.943886,0.264745239 C24.5756101,0.490557355 0.60782782,14.2984677 0.402608231,14.4071096 C0.197388643,14.5161224 -0.00111466764,14.7589909 4.71193143e-06,15.1331197 C0.0026165976,15.5072485 4.71193143e-06,42.9243248 4.71193143e-06,43.0711583 C4.71193143e-06,43.3433193 0.125748351,43.7882693 0.219403108,43.9132261" id="Fill-2" fill="#FFBED0" sketch:type="MSShapeGroup"></path>
        <path d="M26,0 L51.6352847,43.8105168 C51.6352847,43.8105168 51.786401,43.4211856 51.7886397,43.1634854 C51.7912516,42.9057852 51.7875203,15.3203695 51.7875203,15.1179172 C51.7875203,14.9158358 51.7714759,14.6896529 51.364768,14.4445596 C50.8532115,14.1360609 26.8578179,0.257700198 26.8578179,0.257700198 C26.8578179,0.257700198 26.5242428,0.0300341238 26,0" id="Fill-3" fill="#D3547B" sketch:type="MSShapeGroup"></path>
        <path d="M0.594048391,44.585532 C0.594048391,44.585532 24.0368416,58.370824 24.6741417,58.744582 C25.6823296,59.3359947 26.5655201,58.7786948 26.5655201,58.7786948 C26.5655201,58.7786948 50.1609221,44.8947722 50.5982264,44.6166785 C51.0665002,44.3189328 51.2198552,44.0171084 51.2198552,44.0171084 L0.0104785077,44.0171084 C-0.0492217361,43.9136575 0.146296562,44.3015056 0.594048391,44.585532" id="Fill-4" fill="#BF4C76" sketch:type="MSShapeGroup"></path>
    </g>
</svg>

<svg width="52" height="60" xmlns="http://www.w3.org/2000/svg"><g fill="none" fill-rule="evenodd"><path d="M26.486 54.128s1.487-.534 1.726-.707l23.122-9.33s.14-.18.224-.506c.127-.496-2.478-27.167-2.478-27.515 0-.35-2.89-.52-3.14-.65C45.69 15.29 26.638.32 26.358.155c-.32-.186-.892-.272-1.407.137C24.47.673.9 14.178.458 14.397c-.44.22-.462.633-.455.718.007.086 0 28.34 0 28.578 0 .238.224.6.546.75.322.148 23.988 9.46 24.215 9.604.228.146 1.49.06 1.726.08" fill="#E97293"/><path d="M.22 43.913L25.794 0s-.482.038-.85.265C24.574.49.607 14.298.402 14.407c-.206.11-.404.352-.403.726.002.374 0 27.79 0 27.938 0 .274.125.72.22.844" fill="#FFBED0"/><path d="M26 0l25.635 43.81s.15-.39.154-.647l-.003-28.045c0-.202-.017-.428-.423-.673-.51-.31-24.506-14.187-24.506-14.187S26.524.03 26 0" fill="#D3547B"/><path d="M.594 44.586l24.08 14.16c1.008.59 1.892.033 1.892.033S50.16 44.893 50.598 44.615c.47-.298.622-.6.622-.6H.01c-.06-.103.136.285.584.57" fill="#BF4C76"/></g></svg>
